X:1024
T:Mrs. Ferguson's Strathspey.
M:C
L:1/8
Q:1/4=120
I: || ||
Z:Jack Campin * www.campin.me.uk * 2009
K:G
(D//E//F/)|G>AGD    EG`eg|{e}dB {B}AG A/A/A AB|G>AGD EG`eg|{e}dB c/B/A/G/ DG```G:|
 e        |g>age    g>age|{e}dB````Bd eA````Ae|g>age g>age|   dB`de   ({e}g2)  ge|
           de`ge {e}dB`BG|   c>A```BG A/A/A AB|G>AGD EG`AB|   cd`ef   ({ef}g2) G|]
<end>
<start>
